X:1
T:Penosissimo Christo
T:Penosissimo Christo
T:Marc'Antonio Tornioli
T:Source : Canzonette spiriruali a tre voci---Libro Primo---Venetia---Ang.Gardano---1607. Editor : André Vierendeels (19/06/16). 
T:Notes : Original clefs : C1, C1, F4 Text by Angelo Grillo (Pietosi affetti) m 18 in S2 :"G" notated as whole note in original print
T:©
T:©
T:©
T:©
C:Marc'Antonio Tornioli
Z:©
%%score [ 1 2 3 ]
L:1/8
Q:1/4=90
M:4/4
K:F
V:1 treble nm="Soprano 1" snm="S 1"
V:2 treble nm="Soprano 2" snm="S 2"
V:3 bass nm="Bass" snm="B"
V:1
 d2 d2 d4- | d4 c2 B2 | A2 =B2 c4 | c4 c2 cc | B2 B2 A4- | A2 c4 =B2 | c4 A4- | A4 G4 | A4 z2 A2 | %9
w: Pe- no- sis-|* si- mo|Chri- * *|sto, gia non cre-|d'io che'l fe-||le, all'|_ as-|pro, all'|
 G6 ^F2 | ^F4 G4 | c8 | d4 D4 | E3 E A3 A | A4 z2 d2 | B4 z2 d2 | d4 c4 | ^c2 d4 c2 |[M:2/4] A4 :: %19
w: as- pro'a-|ce- to|mi-|sto, fos-|se'al- le lab- bra|tue co-|si, co-|si cru-|* de- *|le.|
 d2 AB |[M:4/4] c8 | A2 B3 G c2- | cA d4 ^c2 | d2 FG A4- | A2 GF D4- | D4 E4 | A2 F2 A2 Bc | %27
w: Co- me quel|ba-|cio per- fi- do'e|_ men- ti- *|to, on- de fo-|* sti tra- di|_ to,|che se'al gu- sto fu|
 d6 c2- | c2 B4 A2 | B6 A2 | d2 B2 c2 BA | B4 A4 | F6 E2 | A8 | G8 :| %35
w: l'un mar-|* ti- ro'a-|tro- ce,|del- la boc- ca'e dell'|al- ma'e|l'al- tro|cro-|ce.|
V:2
 B2 B2 B4- | B4 A2 G2 | ^F4 G4- | G4 ^F4 | G4 F2 FF | E2 E2 F4 | E8 | z4 c4- | c4 d4- | d2 ^c2 d4 | %10
w: Pe- no- sis-|* si- mo|Chri- *||sto, gia non cre-|d'io che'l fe-|le,|all'|_ as-|* pro'a- ce-|
 A4 B4- | B4 A4 | B4 F4 | AB c3 A d2- | d2 c2 A4 | z2 d2 A4 | z2 G2 A4 | G4 G4 |[M:2/4] ^F4 :: z4 | %20
w: to mi-||sto, fos-|se'al- le lab- bra tue|_ co- si,|co- si,|co- si|cru- de-|le.||
[M:4/4] A2 EF G4 | F4 G3 E | A3 F E4 | D4 z2 AB | c6 =BA | =B4 c4 | F2 D2 F2 GA | B6 A2 | %28
w: Co- me quel ba-|cio per- fi-|do'e men- ti-|to, on- de|fo- sti tra-|di- to,|che se'al gu- sto fu|l'un mar-|
 G2 G2 F4- | F2 E2 F4 | z8 | d2 B2 c2 BA | B4 A2 A2- | A^F G3 F/E/ F2 | G8 :| %35
w: ti- ro'a- tro-|* * ce,||del- la boc- ca'e dell'|al- ma'e l'al-|* tro cro- * * *|ce.|
V:3
 z8 | D,2 D,2 D,4- | D,4 C,2 B,,2 | A,,8 | G,,4 D,2 D,D, | C,2 C,2 D,4 | C,8 | E,8 | F,8 | %9
w: |Pe- no- sis-|* si- mo|Chri-|sto, gia non cre-|d'io che'l fe-|de,|all'|as-|
 E,4 D,4- | D,4 G,4 | F,8 | B,,4 B,4 | A,3 G, F,3 D, | A,4 ^F,4 | G,4 F,4 | E,8- | E,8 | %18
w: pro'a- ce-|* to|mi-|sto, fos-|se'al- le lab- bra|tue co-|si cru-|de-||
[M:2/4] D,4 :: z4 |[M:4/4] A,,2 C,D, E,4 | D,4 _E,3 C, | F,3 D, A,4 | B,2 D,E, F,4- | %24
w: le.||Co- me quel ba-|cio per- fi-|do'e men- ti-|to, on- de fo-|
 F,2 E,D, G,4- | G,4 C,4 | z8 | B,,2 G,,2 B,,2 C,D, | _E,2 E,2 D,2 D,2 | G,4 F,4 | %30
w: * sti tra- di-|* to,||che se'al gu- sto fu|l'un mar- ti- ro'a-|tro- ce,|
 B,2 G,2 A,2 G,F, | G,4 F,4 | D,6 ^C,2 | D,8 | G,,8 :| %35
w: del- la boc- ca'e dell'|al- ma'e|l'al- tro|cro-|ce.|

